X:13
T:The Cottage Groves
M:4/4
L:1/8
F:http://blackrosetheband.googlepages.com/ABCTUNES.ABC May 2009
S:Kevin Burke Live - Track 4
K:G
"A Part"E|D2 D2 AD (3FED|E2 cE dE cE|(3DED FA d3B|BAG E EDCE|
[A,3D3]  B AD (3FED|E2 cE dE cE|(3DED FA dcdB|BAGE EDDE|
D2 (3DED AD (3FED|E2 cE dE cE|(3DED FA [F3d3] B|(3BcB AE EDCA,|
[A,3D3] BA D(3FED|E2 cE dE cE|(3DED FA [F3d3] B|BAGE EDDg|
"B Part"fd (3dcd faaf|ec (3cBc eg (3gfe|fddc dcAB|cAGE EDDg|
fd (3dcd faaf|ec (3cBc eg (3gfe|dz (3efg fagb|afge fdde|
fa (3aga fd (3dcd|efgf ec (3cBc|fgag fddB|BAGE EDD2|
fa (3aga fd (3dcd|efgf ec (3cBc|dz (3efg fagb|afge fdde|
:"C Part"f2 df fedf|(3efe ^ce Aece|f2 de (3fgf af|ge^cf eddf|
fedf fedf|(3efe ^ce Aece|d2 (3efg fagb|afge fdde:|
"Alt A"dcAG FGAB|[G3c3] z[Gc] AGE|DEFG Addc|(3ABc GE EDCA,|
[A,4D4] [A,2D2] (3FED|E2 cE dE cE|(3DED FA d3 B|BAGE EDCA,|
[A,3D3] B AD(3FED|E2 cE dE cE|D2 FA (dcd)B|BAGE EDCA,|
"Alt A2"e|=f2 df (3efe ^cA|d2 AG FGEF|DEFG Addc|(3ABc GE EDCA,
